symbolic/24x24/actions/format-node-symmetric.svg

<svg xmlns="http://www.w3.org/2000/svg" width="24" height="24"><defs><style id="current-color-scheme" type="text/css"></style></defs><path style="fill:currentColor;color:#323a41" d="M6 6v2H4V7H1v3h3V9h2v1h4V9h2v1h3V7h-3v1h-2V6H6z" transform="translate(4 4)"/></svg>

<svg xmlns="http://www.w3.org/2000/svg" width="24" height="24" viewBox="0 0 24 24">
 <defs>
  <style id="current-color-scheme" type="text/css">
   .ColorScheme-Text { color:#323a41; } .ColorScheme-Highlight { color:#4285f4; } .ColorScheme-NeutralText { color:#ff9800; } .ColorScheme-PositiveText { color:#4caf50; } .ColorScheme-NegativeText { color:#f44336; }
  </style>
 </defs>
 <path style="fill:currentColor" class="ColorScheme-Text" d="M 6 6 L 6 8 L 4 8 L 4 7 L 1 7 L 1 10 L 4 10 L 4 9 L 6 9 L 6 10 L 10 10 L 10 9 L 12 9 L 12 10 L 15 10 L 15 7 L 12 7 L 12 8 L 10 8 L 10 6 L 6 6 z" transform="translate(4 4)"/>
</svg>
